svgs/solid/grid-4.svg

<svg xmlns="http://www.w3.org/2000/svg" viewBox="0 0 448 512"><!--! Font Awesome Pro 6.4.2 by @fontawesome - https://fontawesome.com License - https://fontawesome.com/license (Commercial License) Copyright 2023 Fonticons, Inc. --><path d="M0 48c0-8.8 7.2-16 16-16H73.6c8.8 0 16 7.2 16 16v57.6c0 8.8-7.2 16-16 16H16c-8.8 0-16-7.2-16-16V48zM0 167.5c0-8.8 7.2-16 16-16H73.6c8.8 0 16 7.2 16 16v57.6c0 8.8-7.2 16-16 16H16c-8.8 0-16-7.2-16-16V167.5zM16 270.9H73.6c8.8 0 16 7.2 16 16v57.6c0 8.8-7.2 16-16 16H16c-8.8 0-16-7.2-16-16V286.9c0-8.8 7.2-16 16-16zM0 406.4c0-8.8 7.2-16 16-16H73.6c8.8 0 16 7.2 16 16V464c0 8.8-7.2 16-16 16H16c-8.8 0-16-7.2-16-16V406.4zM119.5 48c0-8.8 7.2-16 16-16h57.6c8.8 0 16 7.2 16 16v57.6c0 8.8-7.2 16-16 16H135.5c-8.8 0-16-7.2-16-16V48zm0 119.5c0-8.8 7.2-16 16-16h57.6c8.8 0 16 7.2 16 16v57.6c0 8.8-7.2 16-16 16H135.5c-8.8 0-16-7.2-16-16V167.5zm16 103.5h57.6c8.8 0 16 7.2 16 16v57.6c0 8.8-7.2 16-16 16H135.5c-8.8 0-16-7.2-16-16V286.9c0-8.8 7.2-16 16-16zm-16 135.5c0-8.8 7.2-16 16-16h57.6c8.8 0 16 7.2 16 16V464c0 8.8-7.2 16-16 16H135.5c-8.8 0-16-7.2-16-16V406.4zM254.9 32h57.6c8.8 0 16 7.2 16 16v57.6c0 8.8-7.2 16-16 16H254.9c-8.8 0-16-7.2-16-16V48c0-8.8 7.2-16 16-16zm0 119.5h57.6c8.8 0 16 7.2 16 16v57.6c0 8.8-7.2 16-16 16H254.9c-8.8 0-16-7.2-16-16V167.5c0-8.8 7.2-16 16-16zm-16 135.5c0-8.8 7.2-16 16-16h57.6c8.8 0 16 7.2 16 16v57.6c0 8.8-7.2 16-16 16H254.9c-8.8 0-16-7.2-16-16V286.9zm16 103.5h57.6c8.8 0 16 7.2 16 16V464c0 8.8-7.2 16-16 16H254.9c-8.8 0-16-7.2-16-16V406.4c0-8.8 7.2-16 16-16zM358.4 48c0-8.8 7.2-16 16-16H432c8.8 0 16 7.2 16 16v57.6c0 8.8-7.2 16-16 16H374.4c-8.8 0-16-7.2-16-16V48zm0 119.5c0-8.8 7.2-16 16-16H432c8.8 0 16 7.2 16 16v57.6c0 8.8-7.2 16-16 16H374.4c-8.8 0-16-7.2-16-16V167.5zm16 103.5H432c8.8 0 16 7.2 16 16v57.6c0 8.8-7.2 16-16 16H374.4c-8.8 0-16-7.2-16-16V286.9c0-8.8 7.2-16 16-16zm-16 135.5c0-8.8 7.2-16 16-16H432c8.8 0 16 7.2 16 16V464c0 8.8-7.2 16-16 16H374.4c-8.8 0-16-7.2-16-16V406.4z"/></svg>

<svg xmlns="http://www.w3.org/2000/svg" viewBox="0 0 448 512"><!--! Font Awesome Pro 6.1.1 by @fontawesome - https://fontawesome.com License - https://fontawesome.com/license (Commercial License) Copyright 2022 Fonticons, Inc. --><path d="M0 48C0 39.16 7.164 32 16 32H73.6C82.44 32 89.6 39.16 89.6 48V105.6C89.6 114.4 82.44 121.6 73.6 121.6H16C7.164 121.6 0 114.4 0 105.6V48zM0 167.5C0 158.6 7.164 151.5 16 151.5H73.6C82.44 151.5 89.6 158.6 89.6 167.5V225.1C89.6 233.9 82.44 241.1 73.6 241.1H16C7.164 241.1 0 233.9 0 225.1V167.5zM73.6 270.9C82.44 270.9 89.6 278.1 89.6 286.9V344.5C89.6 353.4 82.44 360.5 73.6 360.5H16C7.164 360.5 0 353.4 0 344.5V286.9C0 278.1 7.164 270.9 16 270.9H73.6zM0 406.4C0 397.6 7.164 390.4 16 390.4H73.6C82.44 390.4 89.6 397.6 89.6 406.4V464C89.6 472.8 82.44 480 73.6 480H16C7.164 480 0 472.8 0 464V406.4zM119.5 48C119.5 39.16 126.6 32 135.5 32H193.1C201.9 32 209.1 39.16 209.1 48V105.6C209.1 114.4 201.9 121.6 193.1 121.6H135.5C126.6 121.6 119.5 114.4 119.5 105.6V48zM119.5 167.5C119.5 158.6 126.6 151.5 135.5 151.5H193.1C201.9 151.5 209.1 158.6 209.1 167.5V225.1C209.1 233.9 201.9 241.1 193.1 241.1H135.5C126.6 241.1 119.5 233.9 119.5 225.1V167.5zM193.1 270.9C201.9 270.9 209.1 278.1 209.1 286.9V344.5C209.1 353.4 201.9 360.5 193.1 360.5H135.5C126.6 360.5 119.5 353.4 119.5 344.5V286.9C119.5 278.1 126.6 270.9 135.5 270.9H193.1zM119.5 406.4C119.5 397.6 126.6 390.4 135.5 390.4H193.1C201.9 390.4 209.1 397.6 209.1 406.4V464C209.1 472.8 201.9 480 193.1 480H135.5C126.6 480 119.5 472.8 119.5 464V406.4zM312.5 32C321.4 32 328.5 39.16 328.5 48V105.6C328.5 114.4 321.4 121.6 312.5 121.6H254.9C246.1 121.6 238.9 114.4 238.9 105.6V48C238.9 39.16 246.1 32 254.9 32H312.5zM312.5 151.5C321.4 151.5 328.5 158.6 328.5 167.5V225.1C328.5 233.9 321.4 241.1 312.5 241.1H254.9C246.1 241.1 238.9 233.9 238.9 225.1V167.5C238.9 158.6 246.1 151.5 254.9 151.5H312.5zM238.9 286.9C238.9 278.1 246.1 270.9 254.9 270.9H312.5C321.4 270.9 328.5 278.1 328.5 286.9V344.5C328.5 353.4 321.4 360.5 312.5 360.5H254.9C246.1 360.5 238.9 353.4 238.9 344.5V286.9zM312.5 390.4C321.4 390.4 328.5 397.6 328.5 406.4V464C328.5 472.8 321.4 480 312.5 480H254.9C246.1 480 238.9 472.8 238.9 464V406.4C238.9 397.6 246.1 390.4 254.9 390.4H312.5zM358.4 48C358.4 39.16 365.6 32 374.4 32H432C440.8 32 448 39.16 448 48V105.6C448 114.4 440.8 121.6 432 121.6H374.4C365.6 121.6 358.4 114.4 358.4 105.6V48zM358.4 167.5C358.4 158.6 365.6 151.5 374.4 151.5H432C440.8 151.5 448 158.6 448 167.5V225.1C448 233.9 440.8 241.1 432 241.1H374.4C365.6 241.1 358.4 233.9 358.4 225.1V167.5zM432 270.9C440.8 270.9 448 278.1 448 286.9V344.5C448 353.4 440.8 360.5 432 360.5H374.4C365.6 360.5 358.4 353.4 358.4 344.5V286.9C358.4 278.1 365.6 270.9 374.4 270.9H432zM358.4 406.4C358.4 397.6 365.6 390.4 374.4 390.4H432C440.8 390.4 448 397.6 448 406.4V464C448 472.8 440.8 480 432 480H374.4C365.6 480 358.4 472.8 358.4 464V406.4z"/></svg>
